packages/foundations/assets/icons/functional/images/audio & video/play_20.svg

<svg xmlns="http://www.w3.org/2000/svg" width="20" height="20" fill="none"><g clip-path="url(#a)"><path fill="#1A1C1F" fill-rule="evenodd" d="M6.035 4c.195 0 .37.059.546.176l7.697 4.448c.449.313.722.82.722 1.366s-.273 1.054-.722 1.366l-7.716 4.468a1 1 0 0 1-.566.176C5.508 16 5 15.61 5 15.005v-9.97C5 4.467 5.488 4 6.035 4m.976 2.849v6.283l5.705-3.142L7.01 6.85z" clip-rule="evenodd"/></g><defs><clipPath id="a"><path fill="#fff" d="M0 0h20v20H0z"/></clipPath></defs></svg>

<svg width="20" height="20" viewBox="0 0 20 20" fill="none" xmlns="http://www.w3.org/2000/svg">
<g clip-path="url(#clip0_184_362)">
<path fill-rule="evenodd" clip-rule="evenodd" d="M6.035 4C6.23 4 6.405 4.059 6.581 4.176L14.278 8.624C14.727 8.937 15 9.444 15 9.99C15 10.537 14.727 11.044 14.278 11.356L6.562 15.824C6.39491 15.9374 6.19793 15.9987 5.996 16C5.508 16 5 15.61 5 15.005V5.035C5 4.467 5.488 4 6.035 4ZM7.011 6.849V13.132L12.716 9.99L7.01 6.85L7.011 6.849Z" fill="#1A1C1F"/>
</g>
<defs>
<clipPath id="clip0_184_362">
<rect width="20" height="20" fill="white"/>
</clipPath>
</defs>
</svg>
